!!!OTL: UNTER MEINES VATERS SEINEM FENSTER
!!!ARE: Europa, Mitteleuropa, Deutschland, Schlesien
!!!SCT: F0200
!!!YEM: Copyright 1995, estate of Helmut Schaffrath.
**kern
*ICvox
*Ivox
*M3/4
*k[f#c#g#d#]
*E:
{8.g#
16a
=1
8b
8g#
8b
8g#
8b
8g#
=2
8b
8ee
4g#}
{8.cc#
16b
=3
8b
8a
8a
8a
8f#
8a
=4
8.cc#
16b
4b}
{8.g#
16a
=5
8b
8g#
8b
8g#
8b
8g#
=6
8b
8ee
4g#}
{8.cc#
16b
=7
8b
8a
8a
8a
8f#
8a
=8
8.cc#
16b
8b}
{8e
8g#
8a
=9
8b
8a
8a
8a
8f#
8a
=10
8cc#
8b
8b}
{8e
8g#
8a
=11
8b
8a
8a
8a
8f#
8a
=12
8cc#
8b
8b
8b}
{8.g#
16a
=13
8b
8g#
8b
8g#
8b
8g#
=14
8b
8ee
4g#}
{8.cc#
16b
=15
8b
8a
8a
8f#
8d#
8f#
=16
4f#
4e}
==
!!!AGN: Scherz - Lied
!!!ONB: ESAC (Essen Associative Code) Database: FINK
!!!AMT: simple triple
!!!AIN: vox
!!!EED: Helmut Schaffrath
!!!EEV: 1.0
*-
